src/assets/images/toolbox/git.svg

<svg
  width="32"
  height="32"
  viewBox="0 0 32 32"
  fill="transparent"
  xmlns="http://www.w3.org/2000/svg">
  <path
    fill="#DE4C36"
    d="M31.3965 14.5742L17.425 0.603469C16.6209 -0.201156 15.3159 -0.201156 14.5107 0.603469L11.6095 3.50472L15.2899 7.18509C16.1451 6.89609 17.1259 7.08997 17.8076 7.77172C18.4926 8.45784 18.6851 9.44697 18.3891 10.305L21.936 13.852C22.7941 13.5563 23.7843 13.7476 24.4696 14.4341C25.4275 15.3916 25.4275 16.9435 24.4696 17.9016C23.5115 18.8598 21.9596 18.8598 21.001 17.9016C20.2805 17.1803 20.1025 16.1222 20.4673 15.2346L17.1595 11.9268L17.1591 20.6315C17.3989 20.75 17.6179 20.9066 17.8076 21.0952C18.7655 22.0527 18.7655 23.6047 17.8076 24.5636C16.8495 25.5213 15.2969 25.5213 14.3401 24.5636C13.3823 23.6047 13.3823 22.0528 14.3401 21.0953C14.5697 20.8657 14.8425 20.6838 15.1427 20.5602V11.7745C14.842 11.6517 14.5691 11.4697 14.3401 11.2393C13.6144 10.5146 13.4399 9.44972 13.8118 8.55859L10.1838 4.93022L0.60375 14.5096C-0.20125 15.315 -0.20125 16.6201 0.60375 17.4248L14.5755 31.3958C15.3799 32.2006 16.6846 32.2006 17.49 31.3958L31.3964 17.4897C32.2011 16.6847 32.2012 15.3788 31.3965 14.5742Z"
    />
</svg>

<svg xmlns="http://www.w3.org/2000/svg" width="32" height="32" fill="transparent" xmlns:v="https://vecta.io/nano">
  <path fill="#de4c36"
    d="M31.397 14.574L17.425.603a2.06 2.06 0 0 0-2.914 0L11.61 3.505l3.68 3.68c.855-.289 1.836-.095 2.518.587a2.45 2.45 0 0 1 .581 2.533l3.547 3.547c.858-.296 1.848-.104 2.534.582a2.45 2.45 0 0 1 0 3.467c-.958.958-2.51.958-3.469 0-.721-.721-.899-1.779-.534-2.667l-3.308-3.308v8.705c.24.119.459.275.649.464.958.958.958 2.51 0 3.468a2.45 2.45 0 0 1-3.468 0c-.958-.959-.958-2.511 0-3.468a2.46 2.46 0 0 1 .803-.535v-8.786c-.301-.123-.574-.305-.803-.535a2.45 2.45 0 0 1-.528-2.681L10.184 4.93.604 14.51a2.06 2.06 0 0 0 0 2.915l13.972 13.971a2.06 2.06 0 0 0 2.914 0L31.396 17.49c.805-.805.805-2.111 0-2.915z" />
</svg>
